X: 4012
M: C|
L: 1/8
K: A
uf |\
eAcA eAfA | eAcA Bcdf |\
eAcA eaga | fdBd cAA :|\
g |\
a2(ed) cAfg | a2(ga) fdBg |
a2(ed) cde=g | fdBd cAAg |\
a2 (3(gag) (3(fgf) (3(efe) | d2(3(cdc) (BE)E2 |\


